X:171
T:Frisk it. Ru1.171
%%VWML:RutherfordVol1-2248-p66-0p66
Z:Transcription by Village Music Project, Steve Mansfield July 2015
F:http://www.village-music-project.org.uk/
F:http://www.vwml.org/record/RutherfordVol1/2248/p66
L:1/8
W:The 1st Cu. cast off, and turns .| Cast off again & turn :| Lead up
W:to ye top foot it and cast off .|. Right hand & left quite round
W:with ye 3d Cu. :||: Hands & cross quite round with ye 2d and 3d We. .||.
W:The same with the Men :|| Hay contrary sides .||. foot it
W:to your Partner and turn it out :|
Q:2/4=80
K:G
|:B2cB A2BA | G2AF GD G,2 | (3BcB (3ABA (3GAG (3FGF | EAAF G2 G,2 :|
|: GBAc Bdce | de2d/^c/ d2D2 | gb2a/g/ fa2g/f/ | edA^c d2D2 |
B2cB A2BA | G2AF GD G,2 | (3BcB (3ABA (3GAG (3FGF | EAAF G2 G,2 :|
|: g2Tag/a/ bgd2 | gdBG A/G/F/E/ D2 | g2ag/a/ bgdg | fe/d/ ed/c/ d2D2 :|
|: GccB dBe2 | BA/B/ c/B/A/G/ A/G/F/E/ D2 | GccB dBeg | BA/B/ c/B/A/B/ G2G,2 :|]
T:Sack Possett. Ru1.172
B:Rutherford's Country Dances Vol 1, 1756
Z:village music project, Steve Mansfield July 2015
M:6/8
L:1/8
W:The first Cu. cast off below ye 2d
W:Cu. .| Then cast off below ye 3d Cu. :|
W:Lead up to ye top foot it & cast off .|.
W:Hands round six with the 2d and 3d Couple :|
Q:3/8=90
N:"NB" Possibly e3, indistinct in Mss
K:G
|:D | G>AB g>ag | fed e2d | e/f/gB ABc | BGG G2 :|
|: D G>AB g>ag | GAB A2G | g>ag/f/ eag | fed "NB"d2g |
gbg afd | e/f/gB ABc | d3 dgd | BGG G2 :|]
